svg/zw.svg

<?xml version="1.0" encoding="UTF-8"?>
<svg
   xmlns="http://www.w3.org/2000/svg"
   xmlns:xlink="http://www.w3.org/1999/xlink"
   width="1008"
   height="504"
   viewBox="0 0 252 126">

<rect id="green_stripes"	width="252" height="126"	fill="#319208"/>
<rect id="yellow_stripes"	width="252" height="90"	y="18"	fill="#FFD200"/>
<rect id="red_stripes"		width="252" height="54" y="36"	fill="#DE2010"/>
<rect id="black_stripe"		width="252" height="18" y="54"	fill="#000"/>

<path d="M4.582575694955840006588047193728,0 l 84,63 l -84,63 L 0,126 v-126 z" fill="#000"/> <comment>value has to be sqrt(21)</comment>
<path d="M0,0 L 84,63 L 0,126" fill="#FFF"/>

<g id="star">

<g id="upper_star_part" fill="#DE2010" transform="translate(34,63) scale(32)">
  <g>
    <polygon id="triangle_ur" points="0,0 0,1 .75,1" transform="translate(0,-1) rotate(26.26769855)"/>
    <use id="triangle_ul" xlink:href="#triangle_ur" transform="scale(-1,1)"/>
    <polygon id="triangle2_ur" points="0,0 0,1 .75,1" transform="translate(0,-1) rotate(19.57996077)"/>
    <use id="triangle2_ul" xlink:href="#triangle2_ur" transform="scale(-1,1)"/>
  </g>
  <use xlink:href="#triangle_ur" transform="rotate(72)"/>
  <use xlink:href="#triangle_ul" transform="rotate(-72)"/>
  <use xlink:href="#triangle2_ur" transform="rotate(72)"/>
  <use xlink:href="#triangle2_ul" transform="rotate(-72)"/>
</g>

<g id="lower_star_part" fill="#DE2010" transform="translate(34,63) scale(27.5)">
  <g id="cone_l">
    <polygon id="triangle_l" points="0,0 0,1 .5,1" transform="translate(0,-1) rotate(24.22482095)"/>
    <use xlink:href="#triangle_l" transform="scale(-1,1)"/>
  </g>
  <use xlink:href="#cone_l" transform="rotate(144)"/>
  <use xlink:href="#cone_l" transform="rotate(-144)"/>
</g>

</g>

<g id="bird">
  <path d="M 28.63541,55.109321 C 30.611561,59.414581 31.105753,59.697041 36.046234,61.390941 C 40.986715,63.084631 54.943835,64.690451 56.320131,64.849251 C 55.420245,63.949371 39.698712,52.303801 36.46971,49.974681 C 33.240707,47.645571 32.340822,46.586881 32.340822,46.586881 C 32.340822,46.586881 29.429427,41.346381 28.423672,39.811281 C 27.417918,38.276181 25.565211,36.105871 23.130227,36.105871 C 20.695242,36.105871 19.21318,37.535101 18.507353,40.075951 C 18.119132,40.181821 16.037009,41.452451 16.107623,42.758031 C 16.707582,42.687311 20.483608,41.628621 21.78929,45.898731 C 23.095075,50.168841 23.165585,57.155981 21.824545,60.614501 C 20.483504,64.073021 18.401485,66.684171 18.401485,69.719221 C 18.401485,70.142691 18.683733,70.989641 19.38956,70.989641 C 19.636553,72.330791 21.612807,81.894131 21.612807,81.894131 L 49.774042,81.894131 L 54.247003,64.602161" style="fill:#ffc618;overflow:visible"/>
 <g style="fill:none;stroke:black;stroke-width:0.21173774;overflow:visible">
  <path d="M 28.63541,55.109321 C 30.611561,59.414581 31.105753,59.697041 36.046234,61.390941 C 40.986715,63.084631 54.943835,64.690451 56.320131,64.849251 C 55.420245,63.949371 39.698712,52.303801 36.46971,49.974681 C 33.240707,47.645571 32.340822,46.586881 32.340822,46.586881 C 32.340822,46.586881 29.429427,41.346381 28.423672,39.811281 C 27.417918,38.276181 25.565211,36.105871 23.130227,36.105871 C 20.695242,36.105871 19.21318,37.535101 18.507353,40.075951 C 18.119132,40.181821 16.037009,41.452451 16.107623,42.758031 C 16.707582,42.687311 20.483608,41.628621 21.78929,45.898731 C 23.095075,50.168841 23.165585,57.155981 21.824545,60.614501 C 20.483504,64.073021 18.401485,66.684171 18.401485,69.719221 C 18.401485,70.142691 18.683733,70.989641 19.38956,70.989641 C 19.636553,72.330791 21.612807,81.894131 21.612807,81.894131 L 49.774042,81.894131 L 54.247003,64.602161"/>
  <path d="M 19.38956,70.989641 C 19.38956,70.989641 25.388832,70.636881 27.012225,70.636881 C 28.63541,70.636881 43.74613,70.655501 52.176976,72.604761"/>
  <path d="M 21.508178,70.870751 C 21.508178,70.870751 20.907083,70.142691 21.2952,68.695891 C 21.683318,67.249081 25.918177,63.508111 25.918177,58.214871"/>
  <path d="M 25.141736,70.636881 C 25.141736,70.636881 24.64775,68.272411 30.047065,66.260901 C 31.564587,65.802071 35.905007,63.367091 36.046234,61.390941"/>
  <path d="M 29.473056,66.485261 C 29.473056,66.485261 42.71639,66.543151 53.197205,68.660531"/>
  <path d="M 32.792626,64.905291 C 32.792626,64.905291 37.343128,65.060991 38.084211,64.849251 C 38.825293,64.637511 40.137077,64.087081 40.658976,62.536061"/>
  <path d="M 35.490423,64.959261 C 35.490423,64.959261 37.924582,63.693791 38.401404,62.048281"/>
  <path d="M 28.141424,81.894131 C 28.141424,81.894131 27.100311,74.677681 26.888574,70.636881 L 29.606013,73.230671 L 32.480809,70.716491 L 34.952392,73.354321 L 37.810027,70.929471 L 40.28099,73.707081 L 43.110918,71.300431 L 45.362698,73.918821 L 48.184976,71.877951 L 51.540109,75.066631"/>
  <path d="M 50.9508,77.345081 C 40.870302,75.901381 27.380491,75.995051 27.380491,75.995051"/>
  <path d="M 22.693931,51.052191 C 22.693931,51.052191 30.89381,47.133801 32.340822,46.586881"/>
 </g>
 <g style="fill:none;stroke:black;overflow:visible" transform="matrix(0.211738,0,0,0.211738,16,36)" >
  <polyline points="52.4873047,177.0859375 65.5048828,188.9375 77.2666016,177.1757813 89.1630859,189.4423828 102.0087891,178.0839844 113.8359375,190.5136719 127.1748047,179.5009766 138.0722656,192.2285156 151.3417969,182.0839844 165.2890625,194.4033203"/>
  <circle cx="89.425293" cy="154.58398" r="5.1665039"/>
  <circle cx="111.23682" cy="156.04688" r="5.1665039"/>
  <circle cx="30.049805" cy="16.5" r="4"/>
 </g>
</g>

</svg>

<?xml version="1.0" encoding="UTF-8"?>
<svg width="1008" height="504" viewBox="0 0 252 126" xmlns="http://www.w3.org/2000/svg" xmlns:xlink="http://www.w3.org/1999/xlink">
  <rect id="green_stripes" width="252" height="126" fill="#319208"/>
  <rect id="yellow_stripes" y="18" width="252" height="90" fill="#FFD200"/>
  <rect id="red_stripes" y="36" width="252" height="54" fill="#DE2010"/>
  <rect id="black_stripe" y="54" width="252" height="18"/>
  <path d="m4.5826 0 84 63-84 63h-4.5826v-126z"/>
  <comment>value has to be sqrt(21)</comment>
  <path d="m0 0 84 63-84 63" fill="#FFF"/>
  <g id="star" fill="#DE2010">
    <g id="upper_star_part" transform="translate(34,63) scale(32)">
      <polygon id="triangle_ur" transform="translate(0 -1) rotate(26.268)" points="0 0 0 1 0.75 1"/>
      <use id="triangle_ul" transform="scale(-1,1)" xlink:href="#triangle_ur"/>
      <polygon id="triangle2_ur" transform="translate(0 -1) rotate(19.58)" points="0 0 0 1 0.75 1"/>
      <use id="triangle2_ul" transform="scale(-1,1)" xlink:href="#triangle2_ur"/>
      <use transform="rotate(72)" xlink:href="#triangle_ur"/>
      <use transform="rotate(-72)" xlink:href="#triangle_ul"/>
      <use transform="rotate(72)" xlink:href="#triangle2_ur"/>
      <use transform="rotate(-72)" xlink:href="#triangle2_ul"/>
    </g>
    <g id="lower_star_part" transform="translate(34,63) scale(27.5)">
      <g id="cone_l">
        <polygon id="triangle_l" transform="translate(0 -1) rotate(24.225)" points="0 0 0 1 0.5 1"/>
        <use transform="scale(-1,1)" xlink:href="#triangle_l"/>
      </g>
      <use transform="rotate(144)" xlink:href="#cone_l"/>
      <use transform="rotate(216)" xlink:href="#cone_l"/>
    </g>
  </g>
  <g id="bird">
    <path d="m28.635 55.109c1.9762 4.3053 2.4703 4.5877 7.4108 6.2816 4.9405 1.6937 18.898 3.2995 20.274 3.4583-0.89989-0.89988-16.621-12.545-19.85-14.875-3.229-2.3291-4.1289-3.3878-4.1289-3.3878s-2.9114-5.2405-3.9172-6.7756-2.8585-3.7054-5.2934-3.7054c-2.435 0-3.917 1.4292-4.6229 3.9701-0.38822 0.10587-2.4703 1.3765-2.3997 2.6821 0.59996-0.07072 4.376-1.1294 5.6817 3.1407 1.3058 4.2701 1.3763 11.257 0.035255 14.716-1.341 3.4585-3.4231 6.0697-3.4231 9.1047 0 0.42347 0.28225 1.2704 0.98808 1.2704 0.24699 1.3412 2.2232 10.904 2.2232 10.904h28.161l4.473-17.292" fill="#ffc618"/>
    <g fill="none" stroke="#000" stroke-width=".21174">
      <path d="m28.635 55.109c1.9762 4.3053 2.4703 4.5877 7.4108 6.2816 4.9405 1.6937 18.898 3.2995 20.274 3.4583-0.89989-0.89988-16.621-12.545-19.85-14.875-3.229-2.3291-4.1289-3.3878-4.1289-3.3878s-2.9114-5.2405-3.9172-6.7756-2.8585-3.7054-5.2934-3.7054c-2.435 0-3.917 1.4292-4.6229 3.9701-0.38822 0.10587-2.4703 1.3765-2.3997 2.6821 0.59996-0.07072 4.376-1.1294 5.6817 3.1407 1.3058 4.2701 1.3763 11.257 0.035255 14.716-1.341 3.4585-3.4231 6.0697-3.4231 9.1047 0 0.42347 0.28225 1.2704 0.98808 1.2704 0.24699 1.3412 2.2232 10.904 2.2232 10.904h28.161l4.473-17.292"/>
      <path d="m19.39 70.99s5.9993-0.35276 7.6227-0.35276c1.6232 0 16.734 0.01862 25.165 1.9679"/>
      <path d="m21.508 70.871s-0.6011-0.72806-0.21298-2.1749c0.38812-1.4468 4.623-5.1878 4.623-10.481"/>
      <path d="m25.142 70.637s-0.49399-2.3645 4.9053-4.376c1.5175-0.45883 5.8579-2.8938 5.9992-4.87"/>
      <path d="m29.473 66.485s13.243 0.05789 23.724 2.1753"/>
      <path d="m32.793 64.905s4.5505 0.1557 5.2916-0.05604c0.74108-0.21174 2.0529-0.76217 2.5748-2.3132"/>
      <path d="m35.49 64.959s2.4342-1.2655 2.911-2.911"/>
      <path d="m28.141 81.894s-1.0411-7.2164-1.2528-11.257l2.7174 2.5938 2.8748-2.5142 2.4716 2.6378 2.8576-2.4248 2.471 2.7776 2.8299-2.4066 2.2518 2.6184 2.8223-2.0409 3.3551 3.1887"/>
      <path d="m50.951 77.345c-10.08-1.4437-23.57-1.35-23.57-1.35"/>
      <path d="m22.694 51.052s8.1999-3.9184 9.6469-4.4653"/>
    </g>
    <g transform="matrix(.21174 0 0 .21174 16 36)" fill="none" stroke="#000">
      <polyline points="52.487 177.09 65.505 188.94 77.267 177.18 89.163 189.44 102.01 178.08 113.84 190.51 127.17 179.5 138.07 192.23 151.34 182.08 165.29 194.4"/>
      <circle cx="89.425" cy="154.58" r="5.1665"/>
      <circle cx="111.24" cy="156.05" r="5.1665"/>
      <circle cx="30.05" cy="16.5" r="4"/>
    </g>
  </g>
</svg>
